!!!OTL@@FUR: Duc' mi cjalin di m&acirc;l voli
!!!OTL@IT: Tutti mi guardano di brutto
!!!OTL@EN: People give me unkind looks
**kern
*clefG2
*k[f#c#]
*D:
*M3/4
*MM120
*>[A,A]
*>A
4b
4a
=1
4g
4e
4f#
=2
4g
4b
4a
=3
4f#
2f#
=4
4f#
4b
4a
=5
4g
4e
4f#
=6
4g
4cc#
4b
=7
2.a
=8
4a
4dd
4cc#
=9
4b
8g
8f#
8e
8f#
=10
8g
8a
4cc#
4b
=11
4a
8a
8g
8f#
8g
=12
4a
4b
4dd
=13
2cc#
4cc#
=14
4b
4a
4g
=15
[2.f#
=18
4f#]
4r
4r
*-
!!!ARE: Friuli
!!!ENC: Kelly Leistikow
!!!END: 2002/03/07
!!!ref: @{OTL@@FUR}/@{OTL@EN}
